Costumes/I-glow.svg

<?xml version="1.0" encoding="UTF-8" standalone="no"?>
<svg
   version="1.1"
   width="43.799801"
   height="76.052643"
   id="svg8"
   sodipodi:docname="I-glow.svg"
   xmlns:inkscape="http://www.inkscape.org/namespaces/inkscape"
   xmlns:sodipodi="http://sodipodi.sourceforge.net/DTD/sodipodi-0.dtd"
   xmlns="http://www.w3.org/2000/svg"
   xmlns:svg="http://www.w3.org/2000/svg">
  <defs
     id="defs12" />
  <sodipodi:namedview
     id="namedview10"
     pagecolor="#ffffff"
     bordercolor="#000000"
     borderopacity="0.25"
     inkscape:showpageshadow="2"
     inkscape:pageopacity="0.0"
     inkscape:pagecheckerboard="0"
     inkscape:deskcolor="#d1d1d1" />
  <!-- Exported by Scratch - http://scratch.mit.edu/ -->
  <g
     id="ID0.0413050539791584"
     transform="translate(-7.0910692e-5,-3.5387434e-4)">
    <g
       id="ID0.6539395335130394">
      <g
         id="ID0.833999352529645">
        <path
           id="ID0.426238551735878"
           fill="#00cccc"
           d="m 41.515,69.653 c -0.72,1.07 -1.62,2.02 -2.67,2.78 -1.43,1.05 -3.16,1.96 -5.45,2.86 -1.28,0.5 -2.65,0.76 -4.02,0.76 -0.21,0 -0.41,0 -0.62,-0.01 l -6,-0.34 h -6.35 c -0.23,0 -0.47,-0.01 -0.7,-0.02 -1.37,-0.09 -2.23,-0.14 -2.56,-0.16 -0.53,-0.02 -1.07,-0.08 -1.59,-0.17 -5.15,-0.93 -9.08,-4.12 -10.8,-8.75 -0.05,-0.12 -0.09,-0.23 -0.12,-0.34 -0.8,-2.38 -1.54,-7.12 2.41,-12.24 1.92,-2.49 4.06,-3.91 5.9,-4.72 v -9.59 c -0.06,-1.98 -0.06,-3.98 0,-5.96 v -6.03 c -2.47,-1.04 -4.6,-2.69 -6.24,-4.89 -0.71,-0.94 -1.26,-1.98 -1.63,-3.1 -0.5,-1.48 -0.75,-2.98 -0.75,-4.46 0,-3.14 1.23,-13.52 17.04,-15.08 2.93,-0.31 6.06,-0.25 8.97,0.21 1.54,0.16 3.11,0.32 4.71,0.48 9.42,0.78 11.82,7.48 12.33,9.52 0.04,0.19 0.08,0.37 0.12,0.55 0.19,1 0.29,2 0.29,3 0,5.38 -2.93,9.87 -7.74,12.2 v 23.19 c 0.62,0.27 1.21,0.58 1.78,0.94 0.18,0.11 0.35,0.22 0.52,0.34 2.09,1.48 4.71,4.32 5.36,9.45 0.02,0.22 0.05,0.44 0.06,0.66 0.27,4.16 -1.08,7.14 -2.25,8.92 z" />
      </g>
    </g>
    <g
       id="ID0.07091213669627905">
      <path
         id="ID0.5514666894450784"
         fill="#ffffff"
         d="m 32.7,13.071 c 0.058,0.294 0.088,0.587 0.088,0.88 0,1.407 -0.938,2.317 -2.814,2.727 -1.583,0.118 -3.138,0.264 -4.662,0.439 -0.47,0.06 -0.675,0.353 -0.615,0.88 0.058,0.47 0.116,0.938 0.176,1.407 0,1.467 0.058,3.606 0.176,6.421 v 33.073 c 0.533,0.118 1.75,0.177 3.647,0.177 1.542,-0.059 2.639,0.118 3.292,0.527 0.415,0.294 0.683,0.91 0.801,1.848 0.058,0.879 -0.088,1.583 -0.438,2.11 -0.643,0.471 -1.635,0.968 -2.978,1.496 l -6.308,-0.353 h -2.103 c -2.103,0 -3.622,0 -4.557,0 -1.812,-0.116 -2.774,-0.176 -2.89,-0.176 -1.287,-0.233 -2.104,-0.82 -2.453,-1.759 -0.177,-0.528 0.052,-1.201 0.687,-2.023 0.634,-0.82 1.296,-1.319 1.986,-1.495 1.61,0.059 3.681,-0.117 6.211,-0.528 0,-3.283 0,-9.676 0,-19.175 -0.06,-1.876 -0.06,-3.753 0,-5.63 0,-2.345 0,-3.987 0,-4.926 v -5.894 c 0.058,-1.407 -0.088,-3.283 -0.44,-5.629 -2.053,0.352 -3.372,0.527 -3.958,0.527 -1.818,0 -3.166,-0.585 -4.046,-1.759 -0.118,-0.353 -0.176,-0.674 -0.176,-0.968 0,-2.287 2.375,-3.664 7.125,-4.135 2.228,-0.233 4.367,-0.176 6.421,0.177 1.7,0.176 3.431,0.352 5.189,0.527 1.584,0.121 2.464,0.53 2.639,1.234 z" />
    </g>
  </g>
</svg>

<svg version="1.1" width="44" height="77" xmlns="http://www.w3.org/2000/svg" xmlns:xlink="http://www.w3.org/1999/xlink">
  <!-- Exported by Scratch - http://scratch.mit.edu/ -->
  <g id="ID0.0413050539791584">
    <g id="ID0.6539395335130394">
      <g id="ID0.833999352529645">
        <path id="ID0.426238551735878" fill="#00CCCC" d="M 41.515 69.653 C 40.795 70.723 39.895 71.673 38.845 72.433 C 37.415 73.483 35.685 74.393 33.395 75.293 C 32.115 75.793 30.745 76.053 29.375 76.053 C 29.165 76.053 28.965 76.053 28.755 76.043 L 22.755 75.703 L 16.405 75.703 C 16.175 75.703 15.935 75.693 15.705 75.683 C 14.335 75.593 13.475 75.543 13.145 75.523 C 12.615 75.503 12.075 75.443 11.555 75.353 C 6.405 74.423 2.475 71.233 0.755 66.603 C 0.705 66.483 0.665 66.373 0.635 66.263 C -0.165 63.883 -0.905 59.143 3.045 54.023 C 4.965 51.533 7.105 50.113 8.945 49.303 L 8.945 39.713 C 8.885 37.733 8.885 35.733 8.945 33.753 L 8.945 27.723 C 6.475 26.683 4.345 25.033 2.705 22.833 C 1.995 21.893 1.445 20.853 1.075 19.733 C 0.575 18.253 0.325 16.753 0.325 15.273 C 0.325 12.133 1.555 1.753 17.365 0.193 C 20.295 -0.117 23.425 -0.057 26.335 0.403 C 27.875 0.563 29.445 0.723 31.045 0.883 C 40.465 1.663 42.865 8.363 43.375 10.403 C 43.415 10.593 43.455 10.773 43.495 10.953 C 43.685 11.953 43.785 12.953 43.785 13.953 C 43.785 19.333 40.855 23.823 36.045 26.153 L 36.045 49.343 C 36.665 49.613 37.255 49.923 37.825 50.283 C 38.005 50.393 38.175 50.503 38.345 50.623 C 40.435 52.103 43.055 54.943 43.705 60.073 C 43.725 60.293 43.755 60.513 43.765 60.733 C 44.035 64.893 42.685 67.873 41.515 69.653 Z "/>
      </g>
    </g>
    <g id="ID0.07091213669627905">
      <path id="ID0.5514666894450784" fill="#FFFFFF" d="M 32.700 13.071 C 32.758 13.365 32.788 13.658 32.788 13.951 C 32.788 15.358 31.850 16.268 29.974 16.678 C 28.391 16.796 26.836 16.942 25.312 17.117 C 24.842 17.177 24.637 17.470 24.697 17.997 C 24.755 18.467 24.813 18.935 24.873 19.404 C 24.873 20.871 24.931 23.010 25.049 25.825 L 25.049 58.898 C 25.582 59.016 26.799 59.075 28.696 59.075 C 30.238 59.016 31.335 59.193 31.988 59.602 C 32.403 59.896 32.671 60.512 32.789 61.450 C 32.847 62.329 32.701 63.033 32.351 63.560 C 31.708 64.031 30.716 64.528 29.373 65.056 L 23.065 64.703 L 20.962 64.703 C 18.859 64.703 17.340 64.703 16.405 64.703 C 14.593 64.587 13.631 64.527 13.515 64.527 C 12.228 64.294 11.411 63.707 11.062 62.768 C 10.885 62.240 11.114 61.567 11.749 60.745 C 12.383 59.925 13.045 59.426 13.735 59.250 C 15.345 59.309 17.416 59.133 19.946 58.722 C 19.946 55.439 19.946 49.046 19.946 39.547 C 19.886 37.671 19.886 35.794 19.946 33.917 C 19.946 31.572 19.946 29.930 19.946 28.991 L 19.946 23.097 C 20.004 21.690 19.858 19.814 19.506 17.468 C 17.453 17.820 16.134 17.995 15.548 17.995 C 13.730 17.995 12.382 17.410 11.502 16.236 C 11.384 15.883 11.326 15.562 11.326 15.268 C 11.326 12.981 13.701 11.604 18.451 11.133 C 20.679 10.900 22.818 10.957 24.872 11.310 C 26.572 11.486 28.303 11.662 30.061 11.837 C 31.645 11.958 32.525 12.367 32.700 13.071 Z "/>
    </g>
  </g>
</svg>
